symbols/web/cottage/materialsymbolsoutlined/cottage_wght300gradN25_40px.svg

<svg xmlns="http://www.w3.org/2000/svg" height="40" width="40"><path d="M7.75 34.125V17.917l-3.542 2.666L3.042 19l4.708-3.583v-4.542h2v3l10.333-7.833L37 18.958l-1.208 1.584-3.375-2.625v16.208Zm2-2h8.583v-7.333h3.459v7.333h8.625V16.417L20.083 8.583 9.75 16.417Zm-2-23.25Q7.792 7.167 8.917 6t2.916-1.167q1.042 0 1.563-.604.521-.604.562-1.437h2q-.041 1.666-1.166 2.854-1.125 1.187-2.917 1.187-1 0-1.542.584Q9.792 8 9.75 8.875Zm2 23.25h20.667H9.75Z"/></svg>

<svg xmlns="http://www.w3.org/2000/svg" height="40" width="40"><path d="M7.75 34.125V17.917L4.208 20.583L3.042 19L7.75 15.417V10.875H9.75V13.875L20.083 6.042L37 18.958L35.792 20.542L32.417 17.917V34.125ZM9.75 32.125H18.333V24.792H21.792V32.125H30.417V16.417L20.083 8.583L9.75 16.417ZM7.75 8.875Q7.792 7.167 8.917 6Q10.042 4.833 11.833 4.833Q12.875 4.833 13.396 4.229Q13.917 3.625 13.958 2.792H15.958Q15.917 4.458 14.792 5.646Q13.667 6.833 11.875 6.833Q10.875 6.833 10.333 7.417Q9.792 8 9.75 8.875ZM9.75 32.125H18.333H21.792H30.417H20.083H9.75Z"/></svg>
